X:2832
T:Hej tomtegubbar, spela polska i fyra variationer
T:Variation 1
R:Polska
N:Liten julhälsning från Lennart Sohlman (repris)
M:3/4
L:1/4
Q:1/4=140
%%MIDI ratio 2 1
K:D
(A/|(3d)(AB) A/>G/|(3:2:4 (F/>G/)AA d/>(d/|(3:2:3 c/d/)e2 d/>c/|(c/<d/)d>(A|!
(3d)(AB) A/>G/|(3:2:4 (F/>G/)AA d/>(d/|(3:2:3 c/d/)e2 d/>c/|(c/<d/)d>(c|!
(3:2:4 d/f/)ee c/>(c/|d/<f/)e- e/>(c/|(3:2:4d/f/)ee c/>(c/|TB/)A/4^G/4 A>(A|!
(3d)(AB) A/>G/|(3:2:4 (F/>G/)AA d/>(d/|(3:2:3 c/d/)e2 d/>c/|(c/<d/)d>|]|

